images/Traffic_Sign_GR_-_KOK_2009_-_P-35.svg

<svg width="460" height="655" fill="none" xmlns="http://www.w3.org/2000/svg"><path d="M460 0H0v655h460V0z" fill="#0C479D"/><path d="M53 505V150h355v355H53z" fill="#fff"/><path fill-rule="evenodd" clip-rule="evenodd" d="M151.695 408.5c-4.26 12.28-25.462 14-18.733-18.016 3.281-27.446 12.732-98.97 25.32-117.758L155.733 322c0 3.061-.169 74.253-4.038 86.5zm17.538-185.592V199c3.07-9.042 8.185-12.58 18.267-12.929.376-10.125 8.177-14.472 14-16.071h56.497c5.996 1.599 13.91 5.946 14.503 16.071 9.835.348 15.421 3.887 18.733 12.929v264h52v21.93l-226.1.07v-22h52.1V281s0 118.5-7.5 139.5-47.319 10.04-44.6-16.5c4.047-44.079 9.411-89.173 21.757-134.5l4.084-23.83 26.259-22.762zm47.994 19.139h28.597c1.953 0 3.104 1.076 3.104 2.884v25.812c0 1.634-1.156 2.888-3.104 2.888h-28.597c-1.748 0-3.104-1.255-3.104-2.888v-25.812c0-1.808 1.351-2.884 3.104-2.884zm.975-19.139h26.256c2.34 0 4.468-1.806 4.468-3.789 0-2.192-2.128-4.175-4.468-4.003h-26.256c-2.131-.174-4.467 1.811-4.467 4.003 0 1.983 2.336 3.789 4.467 3.789z" fill="#000"/></svg>

<svg width="460" height="655" viewBox="0 0 460 655" fill="none" xmlns="http://www.w3.org/2000/svg">
<path d="M460 0H0V655H460V0Z" fill="#0C479D"/>
<path d="M53 505V150H408V505H53Z" fill="white"/>
<path fill-rule="evenodd" clip-rule="evenodd" d="M151.695 408.5C147.435 420.78 126.233 422.5 132.962 390.484C136.243 363.038 145.694 291.514 158.282 272.726L155.733 322C155.733 325.061 155.564 396.253 151.695 408.5ZM169.233 222.908V199C172.303 189.958 177.418 186.42 187.5 186.071C187.876 175.946 195.677 171.599 201.5 170H257.997C263.993 171.599 271.907 175.946 272.5 186.071C282.335 186.419 287.921 189.958 291.233 199V463H343.233V484.93L117.133 485V463H169.233V281C169.233 281 169.233 399.5 161.733 420.5C154.233 441.5 114.414 430.54 117.133 404C121.18 359.921 126.544 314.827 138.89 269.5L142.974 245.67L169.233 222.908ZM217.227 242.047H245.824C247.777 242.047 248.928 243.123 248.928 244.931V270.743C248.928 272.377 247.772 273.631 245.824 273.631H217.227C215.479 273.631 214.123 272.376 214.123 270.743V244.931C214.123 243.123 215.474 242.047 217.227 242.047ZM218.202 222.908H244.458C246.798 222.908 248.926 221.102 248.926 219.119C248.926 216.927 246.798 214.944 244.458 215.116H218.202C216.071 214.942 213.735 216.927 213.735 219.119C213.735 221.102 216.071 222.908 218.202 222.908Z" fill="black"/>
</svg>
